X:605
T: Connemara Stockings
M: C|
L: 1/8
R: Reel
K: G
g2fg edBA|GABG AGED|GABd eaag|fdef gaba|
g2fg edBA|GABG AGED|GABd eaag|fdef gdef||
gbef gbe2|fade fad2|gbef gbeg|fedf e2ed|
ebba b2ag|eaag ~a3f|g2ge f2fd|edef gaba||
